X:1
T:Las Flores, 86.76.76.76.
T:Las Flores, 86.76.76.76.
T:George J. Ferreira, 1899
T:Public Domain Courtesy of the Cyber Hymnal™
C:George J. Ferreira, 1899
Z:Public Domain
Z:Courtesy of the Cyber Hymnal™
%%score 1 ( 2 3 ) ( 4 5 )
L:1/8
Q:1/4=90
M:3/4
K:G
V:1 treble 
V:2 treble 
V:3 treble 
V:4 bass 
V:5 bass 
V:1
 G>A | B3 G c>B | A2 G2 G2 | G3 F A>G | B4 B2 | d3 A GA | B2 d2 B2 | A3 B FE | A4 D2 | A3 ^G BF | %10
 A2 G2 G2 | B3 ^A cB | A4 A2 | d3 A cF | A2 !fermata!G2 A2 | B3 d BA | G4 |] %17
V:2
 [B,G]>[CA] | [DB]3 [B,G] [Ec]>[DB] | [CA]2 [B,G]2 [DG]2 | G3 F A>G | [B,DB]4 [B,DB]2 | %5
 !>![CFd]3 [CFA] [CFG][CFA] | [DGB]2 [DGBd]2 [B,DB]2 | !>![DA]3 [DB] FE | [CDA]4 D2 | A3 ^G BF | %10
 [CDA]2 [B,DG]2 [B,DG]2 | B3 ^A cB | [CEA]4 [CEA]2 | d3 A cF | [CFA]2 !fermata![B,EG]2 [^CGA]2 | %15
 B3 d BA | [B,DG]4 |] %17
V:3
 x2 | x6 | x6 | E4 _E2 | x6 | x6 | x6 | x4 ^C2 | x6 | [CDF]4 [CD]2 | x6 | [DE^G]4 [DE]2 | x6 | %13
 [CF]4 [CF]2 | x6 | [DG]4 [CF]2 | x4 |] %17
V:4
!<(! [G,,G,]2 | [G,,D,]4 [G,,E,]2!<)! | [D,F,]2 [D,G,]2 [B,,G,]2 | [C,G,]4 [C,F,]2 | %4
 [G,,D,G,]4 [G,,D,G,]2 | [D,,A,,D,]4 [E,,A,,D,]2 | [G,,,G,,]4 [G,,D,G,]2 | [A,,F,]4 [A,,G,]2 | %8
 [D,F,]4 z2 | [D,,D,]4 [D,F,]2 | [D,F,]2 [D,G,]2 [=F,,=F,]2 | [E,,E,]4 [E,^G,]2 | %12
 [A,,A,]4 [G,,G,]2 | [D,,D,]4 [^D,,^D,]2 | !fermata![E,,E,]4 [_E,,_E,]2 | [D,,D,]4 [D,,D,]2 | %16
 [G,,D,]4 |] %17
V:5
 x2 | x6 | G,,4 x2 | x6 | x6 | x6 | x6 | x6 | x6 | x6 | G,,4 x2 | x6 | x6 | x6 | x6 | x6 | x4 |] %17

